X:647
T:My Dermot
C:O'Carolan
B:O'Neill's 647
Z: 1997 by John Chambers <jc@trillian.mit.edu>
N:"Lively"
N:collected by F.O'Neill.
M:6/8
L:1/8
K:Dm
F \
|A2A ABG|F2E D2A/B/|c2c cdB|dc3 c2B|
|A2A ABG|F2E D23A/B/c/|d2d dec d3 d2||
||de \
|f2f fge|f2A A2A/B/|dcBc ed2B|dc3- c2B|
|A2A ABG|F2E D2A|d2d dec|d3 d2|]
